X:87
T:Bach, Bouree
C:Bach; From the third unaccompanied cello suite
S:Jim Coon to CoMandoList TOW
M:4/4
L:1/8
Q:1/8=300
K:G
Bc|:d2GF G2g2|[f2A2D2]ef d2AB|c2FE F2d2|\
[cDG,]BAB G2gf|efgd ^cfgB|AfgG FA^ce|a2fd A2^c2|1 d2A2 D2Bc:|2 d2A2 D2fg
